!!!!SEGMENT: pl-kk--kk-i-315--008_palestrina-giovanni-pierluigi-da--ecce-tu-pulcher-es.krn
!!!cenid: 16xx:1104
!!!COM: Palestrina, Giovanni Pierluigi da
!!!COM-rismID: pe1904
!!!CDT: ~1525-1594/02/02
!!!CNT: Italian
!!!OTL: Ecce tu pulcher es
!!!PDT:
!!!AGN: Sacred
!!!YEC: Copyright 2022 Narodowy Instytut Fryderyka Chopina (https://polishscores.org)
!!!YEM: License CC-BY-4.0 (https://creativecommons.org/licenses/by/4.0)
!!!SMS-siglum: PL-Kk
!!!SMS-shelfmark: Kk.I.315
!!!SMS-shelfwork: 008 W
!!!SMS-variant:
!!!SMS-altvar:
!!!NIFC-rismSourceID: 1001146217
!!!NIFC-rismChildID: 1001146825
!!!NIFC-islandoraID: pl-kk:5289
!!!URL-pdf-islandora: https://repozytorium.nifc.pl/islandora/object/pl-kk%3A5289/datastream/PDF/view
!!!URL-scan: https://polish.musicsources.pl/pl/lokalizacje/galeria/rekopisy/5934 @EN{Scan on Polish Music Sources Website} @PL{Skany w portalu Dziedzictwo Muzyki Polskiej w otwartym dostępie}
!!!IIIF:
!!!ONB-nifc: UWAGA: motety w zbiorze: 1. Osculetur me, 2. Trahe me post curremus, 3. Nigra sum sed formosa, 4. Vineam meam, 5. Si ignoras te o pulchra, 6. Pulchrae sunt genae tuae, 7. Fasciculus myrrhae, 8. Ecce tu pulcher es, 9. Tota pulchra es amica mea, 10. Vulnerasti cor meum, 11. Sicut lilium inter spinas, 12. Introduxit me rex, 13. Laeva ejus, 14. Vox dilecti mei
!!!AIN: 1 alto
!!!key:
**kern	**text
*staff1	*
*Ialto	*
*I"[Alto]	*
*I'[A]	*
*clefC2	*
*k[b-]	*
*d:	*
*M2/1	*
*met(C|)	*
=1-	=1-
!LO:TX:t=P:problem=w źródle znaki przykluczowe b- B-	!
1f	Ec-
!LO:TX:t=P:problem=2/middle or right&colon; global	!
2.d/	-ce
4e/	.
=2-	=2-
1f,<	.
!LO:TX:t=P:problem=2\middle or right&colon; global	!
2.g\	tu
!LO:TX:t=P:problem=4\middle or left&colon; global	!
4f\	.
=3-	=3-
4e/	.
4d/	.
2e,</	.
2d/	pul-
2c/	-cher
=4-	=4-
1d,<	es
*custos:f	*
1c	Di-
!LO:LB:g=original	!
=5-	=5-
1f	-le-
2f\	-cte
2.f\	mi
=6-	=6-
.	.
16e/LL	.
16ryy	.
16d/JJ	.
16ryy	.
2c/	Di-
2.d/	-le-
4e/	-cte
=7-	=7-
1f,<	mi
1b-	ec-
=8-	=8-
2a\	-ce
2g\	tu
2a\	pul-
!	!LO:MO:mod=cher
2a\	-her
=9-	=9-
!LO:TX:t=P:problem=kreska pseudotaktowa	!
1g	es
!LO:LB:g=original	!
2r	.
2g\	tu
=10-	=10-
2g\	pul-
2f\	-cher
2g,<\	es
2g\	Di-
=11-	=11-
2e/	-le-
2e/	-cte
2f,<\	mi
2.cc\	et
=12-	=12-
.	.
4b-\	.
4a\	.
4g\	.
2f\	.
*custos:a	*
2d/	De-
!LO:LB:g=original	!
=13-	=13-
!LO:TX:t:b=2	!
0a	-co-
=14-	=14-
!LO:TX:t=P:problem=kreska pseudotaktowa	!
1f#X	-rus
0r	.
=15-	=15-
1rf	.
=16-	=16-
2r	.
2.a\	le-
4g\	-ctu-
2e/	-lus
=17-	=17-
2f\ny	no-
2d/	-ster
2e/	flo-
2f\	-ri-
=18-	=18-
1g	-dus
00r	.
=19-	=19-
.	.
=20-	=20-
.	.
2r	.
!LO:TX:t=P:problem=kreska pseudotaktowa	!
2b-\	ti-
!LO:LB:g=original	!
=21-	=21-
2a\	-gna
2f\	do-
1g	-mo-
=22-	=22-
2f,<\	-rum
2d/	nos-
1e	-tra-
=23-	=23-
2d,</	-ru(m)
1d	ce-
2c/	-dri-
=24-	=24-
2d/	-na
2f\	ce-
2g\	-dri-
2.a\	.
=25-	=25-
.	.
16g\LL	.
16ryy	.
16f\JJ	.
!LO:LB:g=original	!
16ryy	.
2g\	.
2a,<\	-na
2cc\	ti-
=26-	=26-
2b-\	-gna
2g\	do-
1a	-mo-
=27-	=27-
1g	-rum
1r	.
=28-	=28-
2rd	.
2cc\	ti-
2b-\	-gna
2g\	do-
=29-	=29-
1a	-mo-
2g,<\	-rum
!LO:LB:g=original	!
2g\	no-
=30-	=30-
1f	-stro-
2e,</	-rum
2c/	ce-
=31-	=31-
2d/	.
1e	-dri-
4d/	.
4c/	.
=32-	=32-
1d	-na
0r	.
=33-	=33-
1r	.
=34-	=34-
2r	.
1g	la-
2f\	-qve-
=35-	=35-
2.g\	-a-
4f\	-ri-
!LO:LB:g=original	!
2e,</	-a
2.a\	cy-
=36-	=36-
.	.
4g\	.
4f\	.
4e\	.
2d/	.
2f\	-preſ-
=37-	=37-
2e/	-si-
1d,<	-na
2a\	la-
=38-	=38-
2b-\	-qve-
2g\	-a-
2g\	-ri-
1cc\	-a
=39-	=39-
.	.
1a	cy-
*custos:a	*
2a\	-pres-
!LO:PB:g=original	!
=40-	=40-
1a	-si-
2f,<\	-na
1b-\	e-
=41-	=41-
.	.
2a,<\	-go
1g	flos
=42-	=42-
1g	cam-
2f#X,<\	-pi
2a\	et
=43-	=43-
2.b-\	li-
4b-\	-li-
2a\	-us
2b-\	con-
=44-	=44-
!	!LO:MO:mod=val
2cc\	-va-
2cc\	-li-
!LO:LB:g=original	!
2a,<\	-um
2.b-\	con-
=45-	=45-
.	.
4a\	.
4b-\	.
4g\	.
!	!LO:MO:mod=val
2a\	-va-
2b-\	-li-
=46-	=46-
2g,<\	-um
2.a\	con-
4a\	.
!	!LO:MO:mod=val
1g\	-va-
=47-	=47-
.	.
4f\ny	.
4e/	.
2.f\	.
4g\	-li-
=48-	=48-
!LO:TX:t=P:problem=kreska pseudotaktowa	!
1a	-um
!LO:LB:g=original	!
1r	.
=49-	=49-
2r	.
1a	e-
2a\	-go
=50-	=50-
1a	flos
1b-	cam-
=51-	=51-
1a	-pi
2rd	.
2d/	et
=52-	=52-
2.g\	li-
4g\	-li-
2f#X,<\	-um
2f#\	con-
=53-	=53-
!	!LO:MO:mod=val
4g\	-va-
4a\	.
4b-\	.
4g\	.
!LO:LB:g=original	!
2a\	.
2b-\	.
=54-	=54-
4a\	.
4g\	.
1g	.
2f#X\	-li-
=55-	=55-
00g	-um
==	==
*-	*-
!!!RDF**kern: l = terminal long
!!!RDF**kern: > = above
!!!RDF**kern: < = below
!!!EED: Antoni Szymański
!!!EEV: 2021-03-28
!!!ENC: Kamil Watkowski
!!!END: 2021-03-18
